X:118
T: Die engelische Schferin (1-44), S. 112
N: K1092
O: Luxemburg
S: KINTZELE, Guillaume: An der Ucht, Bd. 1, Luxemburg 1926]
R: Werbung, Abschied]
M: 3/4
L: 1/16
K: G
D4 | G3GG4A4 | B3BB4B2e2 | d4B2G2A2A2 | G4z4
D2D2 | G4G4A2A2 | B4B4B2e2 | d4B2G2A2A2 | G4z4
B2c2 | d4B4B2d2 | d2c2A4d4 | B6d2c2B2 | A4z4
D2D2 | G4G4A2A2 | B2B2B4B2e2 | d4B2G2A2A2 | G8

